X: 1
T: Turkey In The Straw
R: reel
M: 4/4
L: 1/8
K: Gmaj
|:BA|GFGA G2 B,C|DEDB, D2 GA|B2 B2 BAGA|B2 A2 A2 BA|
GFGA G2 B,C|DEDB, D2 GA|B d2 e dBGA|B2 A2 G2:|
|:d2|B d2 B d2 d2|B d2 B d2 d2|c e2 c e2 e2|c e2 c e2 e2|
g2 g2 d2 d2|B2 B2 A2 GA|B d2 e dBGA|B2 A2 G2:|


Tune 2638	Setting 15893

